symbolic/16x16/actions/view-time-schedule-baselined-remove.svg

<svg xmlns="http://www.w3.org/2000/svg" width="16" height="16"><defs><style id="current-color-scheme" type="text/css"></style></defs><path style="fill:currentColor;color:#323a41" d="M10 10v1.414L11.586 13 10 14.586V16h1.414L13 14.414 14.586 16H16v-1.414L14.414 13 16 11.414V10h-1.414L13 11.586 11.414 10zm-6 0v2h4v-2zM2 1C0 1 0 3 0 3v12h8v-2H2V6h4V4H2V3h10v4H6v2h8V3s0-2-2-2z"/></svg>

<svg xmlns="http://www.w3.org/2000/svg" width="16" height="16" version="1.1">
 <defs>
  <style id="current-color-scheme" type="text/css">
   .ColorScheme-Text { color:#323a41; } .ColorScheme-Highlight { color:#4285f4; } .ColorScheme-NeutralText { color:#ff9800; } .ColorScheme-PositiveText { color:#4caf50; } .ColorScheme-NegativeText { color:#f44336; }
  </style>
 </defs>
 <path style="fill:currentColor" class="ColorScheme-Text" d="M 10,10 V 11.414 L 11.586,13 10,14.586 V 16 H 11.414 L 13,14.414 14.586,16 H 16 V 14.586 L 14.414,13 16,11.414 V 10 H 14.586 L 13,11.586 11.414,10 Z M 4,10 V 12 H 8 V 10 Z M 2,1 C 0,1 0,3 0,3 V 15 H 8 V 13 H 2 V 6 H 6 V 4 H 2 V 3 H 12 V 7 H 6 V 9 H 14 V 3 C 14,3 14,1 12,1 Z"/>
</svg>
